X: 4617
T: Bourree D'Aurore Sand
R: polka
M: 2/4
K: Eminor
B|:"Em"E>F GA|"Em"B3 B|"Em"Be "(D)"^de|"Em"B3B|
"Am"c>B "D"AF|"Em"G>F "C"EG|"D"FE FG|1 "D"F3 G/F/:|2 "Em"E4||
|:"G"B>A "D"GA|"G"B>A "D"GA|"G"B>A "D"Bc|"G"BA"D"GA|
"G"B>A "D"GA|"G"B>A Bc|"G"B/c/B/A/ "D"GF|1 "Em"EFGA:|2 "Em"E4||

